src/images/icons/icon-facebook.svg

<svg width="9" height="19" viewBox="0 0 9 19" fill="none" xmlns="http://www.w3.org/2000/svg">
<path d="M6.5 3.35693H9V0.356934H5.6C2.8 0.356934 2 2.05693 2 4.55693V6.35693H0V9.35693H2V18.3569H5V9.35693H8.3L8.9 6.35693H5V4.85693C5 4.05693 5.3 3.35693 6.5 3.35693Z" fill="black"/>
</svg>

<svg xmlns="http://www.w3.org/2000/svg" width="9" height="19" fill="none"><path fill="#000" d="M6.5 3.36H9v-3H5.6C2.8.36 2 2.06 2 4.56v1.8H0v3h2v9h3v-9h3.3l.6-3H5v-1.5c0-.8.3-1.5 1.5-1.5Z"/></svg>
